src/assets/img/notification.svg

<svg
  width="22"
  height="26"
  viewBox="0 0 22 26"
  fill="none"
  xmlns="http://www.w3.org/2000/svg">
  <path
  opacity="0.4"
  fill-rule="evenodd"
  clip-rule="evenodd"
  d="M3.66927 22.4545C1.64382 22.4545 0 20.8655 0 18.9091C0 17.6106 0.727122 16.4532 1.83849 15.835C1.83849 15.4764 1.83333 11.2256 1.83333 11.2256C1.83333 7.14185 4.66852 3.70365 8.55556 2.6765V2.36364C8.55556 1.05824 9.64997 0 11 0C12.35 0 13.4444 1.05824 13.4444 2.36364V2.6765C17.3323 3.70344 20.1667 7.14194 20.1667 11.2318V15.8454C21.2793 16.4664 22 17.619 22 18.9091C22 20.8681 20.3586 22.4545 18.3307 22.4545H14.6667C14.6646 24.413 13.0197 26 11 26C8.97496 26 7.33333 24.4143 7.33333 22.4571L3.66927 22.4545ZM9.77778 22.4545C9.77778 23.1083 10.3244 23.6364 11 23.6364C11.6709 23.6364 12.2201 23.1064 12.2222 22.4545H9.77778ZM17.7222 11.2318V16.9427C17.7222 17.2702 17.9922 17.6032 18.3181 17.6847L18.6385 17.7648C19.1733 17.8984 19.5556 18.3689 19.5556 18.9091C19.5556 19.5624 19.0088 20.0909 18.3307 20.0909H3.66927C2.99369 20.0909 2.44444 19.56 2.44444 18.9091C2.44444 18.3666 2.82517 17.8979 3.36026 17.7647L3.69151 17.6823C4.0153 17.6017 4.27778 17.2732 4.27778 16.9426V11.2256C4.27778 7.63639 7.28675 4.72727 11 4.72727C14.7148 4.72727 17.7222 7.63541 17.7222 11.2318Z"
  fill="white"/>
</svg>

<svg
  width="22"
  height="26"
  fill="none"
  xmlns="http://www.w3.org/2000/svg">
  <path
  opacity=".4"
  fill-rule="evenodd"
  clip-rule="evenodd"
  d="M3.67 22.454C1.643 22.454 0 20.866 0 18.91c0-1.298.727-2.456 1.838-3.074l-.005-4.61c0-4.083 2.836-7.521 6.723-8.548v-.313C8.556 1.058 9.65 0 11 0c1.35 0 2.444 1.058 2.444 2.364v.313c3.888 1.026 6.723 4.465 6.723 8.555v4.613C21.279 16.466 22 17.62 22 18.91c0 1.96-1.641 3.546-3.67 3.546h-3.663C14.665 24.412 13.02 26 11 26c-2.025 0-3.667-1.586-3.667-3.543l-3.664-.003Zm6.108 0c0 .654.546 1.182 1.222 1.182.67 0 1.22-.53 1.222-1.181H9.778Zm7.944-11.222v5.71c0 .328.27.661.596.743l.32.08c.535.133.918.604.918 1.144 0 .653-.547 1.182-1.225 1.182H3.669c-.675 0-1.225-.531-1.225-1.182 0-.542.381-1.011.916-1.144l.332-.083a.803.803 0 0 0 .586-.74v-5.716c0-3.59 3.009-6.499 6.722-6.499 3.715 0 6.722 2.908 6.722 6.505Z"
  fill="#fff"/>
</svg>
